X:1
T: Abergeldie Castle
C:Alexander Walker
R:Reel
I:speed 232
Q:232
K:A
M:4/4
L:1/8
|:e|cA Ac ec Ac|BE EF GA Be|cA Ac ec Ac|dc BG A3e|
cA Ac ec Ac|BE EF GA Be|cA Ac ec Ac|dc BG A3d|
ce ea fa ec|fd ec fB Bd|ce ea fd ed|cA BG A3d|
ce ea fa ec|fd ec fB Bd|ce ea fd ed|cA BG A3:|
